icons/2_Variations/Opalstack bg.var.svg

<svg width="1024" height="1024" viewBox="0 0 1024 1024" fill="none" xmlns="http://www.w3.org/2000/svg">
<g clip-path="url(#clip0_3_209)">
<path d="M512 1024C794.77 1024 1024 794.77 1024 512C1024 229.23 794.77 0 512 0C229.23 0 0 229.23 0 512C0 794.77 229.23 1024 512 1024Z" fill="#F8C18C"/>
<path d="M456.67 734.999V733.779C444.44 732.779 431.67 730.499 420.17 726.199C335.99 694.749 325.27 586.819 325.27 509.919C325.27 494.859 326.5 479.919 327.6 464.919C329.36 440.849 333.19 416.149 340.69 393.139C357.6 341.229 396.86 293.459 455.45 290.939C445.52 286.769 429.31 290.309 418.95 292.059C371.33 300.059 338.44 333.309 321.39 377.319C294.26 447.319 294.9 534.479 309.45 607.259C316.04 640.259 328.7 675.569 353.36 699.519C382.13 727.469 417.92 734.999 456.67 734.999ZM502.9 734.999V733.779C489.591 732.784 476.492 729.895 464 725.199C381.7 693.699 371.5 585.109 371.5 509.929C371.376 492.037 372.422 474.156 374.63 456.399C377.37 435.779 380.52 415.619 386.27 395.569C401.48 342.519 442.97 293.459 501.68 290.939C491.6 286.709 475.68 290.489 465.18 292.259C417.61 300.259 384.7 333.259 367.62 377.329C339.62 449.539 339.62 543.719 358.27 618.219C367.36 654.579 383.78 690.349 415.27 712.579C441.45 730.999 471.74 734.999 502.9 734.999ZM549.13 734.999V733.779C435 724.789 409.91 585.729 418.74 492.899C419.9 480.759 419.21 468.539 420.86 456.399C423.67 435.779 426.75 415.629 432.5 395.569C447.7 342.569 489.29 293.459 547.91 290.939C537.83 286.709 521.91 290.489 511.41 292.259C462.8 300.449 431.25 334.039 413.59 378.539C399.96 412.889 396.16 450.279 394.59 486.819C391.09 566.689 395.28 689.009 483.45 724.729C504.59 733.289 526.61 735.009 549.15 735.009M569.83 290.239C534.46 294.899 503.76 306.169 481.6 335.959C462.71 361.349 453.29 391.679 447.2 422.339C443.35 441.729 442.11 461.109 440.76 480.739C434.55 571.469 444.36 715.559 557.67 733.259C573 735.659 588.55 735.359 603.9 733.449C655.3 727.049 690.53 688.779 706.5 641.329C723.38 591.169 726.83 535.629 723.24 483.169C720.8 447.489 717.24 412.449 704.82 378.539C683.99 321.719 632.33 282.009 569.82 290.239M573.47 332.649C619.98 327.089 648.47 365.649 661.47 405.299C675.92 449.199 677.69 498.299 674.56 543.999C672.79 569.759 671.01 595.819 663.08 620.649C651.7 656.289 629.29 688.349 589.28 692.219C542.28 696.769 515.28 658.049 502.09 618.219C487.4 573.999 486.25 524.349 489.41 478.299C491.1 453.689 493.15 429.049 500.5 405.299C511.71 369.099 533.32 337.449 573.5 332.649H573.47Z" fill="white"/>
</g>
<defs>
<clipPath id="clip0_3_209">
<rect width="1024" height="1024" fill="white"/>
</clipPath>
</defs>
</svg>

<svg xmlns="http://www.w3.org/2000/svg" width="1024" height="1024" fill="none">
   <g clip-path="url(#a)">
      <path fill="#F8C18C" d="M512 1024c282.77 0 512-229.23 512-512S794.77 0 512 0 0 229.23 0 512s229.23 512 512 512Z"/>
      <path fill="#fff" d="M456.67 734.999v-1.22c-12.23-1-25-3.28-36.5-7.58-84.18-31.45-94.9-139.38-94.9-216.28 0-15.06 1.23-30 2.33-45 1.76-24.07 5.59-48.77 13.09-71.78 16.91-51.91 56.17-99.68 114.76-102.2-9.93-4.17-26.14-.63-36.5 1.12-47.62 8-80.51 41.25-97.56 85.26-27.13 70-26.49 157.16-11.94 229.94 6.59 33 19.25 68.31 43.91 92.26 28.77 27.95 64.56 35.48 103.31 35.48Zm46.23 0v-1.22a140.27 140.27 0 0 1-38.9-8.58c-82.3-31.5-92.5-140.09-92.5-215.27a410.737 410.737 0 0 1 3.13-53.53c2.74-20.62 5.89-40.78 11.64-60.83 15.21-53.05 56.7-102.11 115.41-104.63-10.08-4.23-26-.45-36.5 1.32-47.57 8-80.48 41-97.56 85.07-28 72.21-28 166.39-9.35 240.89 9.09 36.36 25.51 72.13 57 94.36 26.18 18.42 56.47 22.42 87.63 22.42Zm46.23 0v-1.22c-114.13-8.99-139.22-148.05-130.39-240.88 1.16-12.14.47-24.36 2.12-36.5 2.81-20.62 5.89-40.77 11.64-60.83 15.2-53 56.79-102.11 115.41-104.63-10.08-4.23-26-.45-36.5 1.32-48.61 8.19-80.16 41.78-97.82 86.28-13.63 34.35-17.43 71.74-19 108.28-3.5 79.87.69 202.19 88.86 237.91 21.14 8.56 43.16 10.28 65.7 10.28m20.68-444.77c-35.37 4.66-66.07 15.93-88.23 45.72-18.89 25.39-28.31 55.72-34.4 86.38-3.85 19.39-5.09 38.77-6.44 58.4-6.21 90.73 3.6 234.82 116.91 252.52 15.33 2.4 30.88 2.1 46.23.19 51.4-6.4 86.63-44.67 102.6-92.12 16.88-50.16 20.33-105.7 16.74-158.16-2.44-35.68-6-70.72-18.42-104.63-20.83-56.82-72.49-96.53-135-88.3m3.65 42.41c46.51-5.56 75 33 88 72.65 14.45 43.9 16.22 93 13.09 138.7-1.77 25.76-3.55 51.82-11.48 76.65-11.38 35.64-33.79 67.7-73.8 71.57-47 4.55-74-34.17-87.19-74-14.69-44.22-15.84-93.87-12.68-139.92 1.69-24.61 3.74-49.25 11.09-73 11.21-36.2 32.82-67.85 73-72.65h-.03Z"/>
   </g>
   <defs>
      <clipPath id="a">
         <path fill="#fff" d="M0 0h1024v1024H0z"/>
      </clipPath>
   </defs>
</svg>
